X: 17510
T: Hills Of Ireland, The
R: slip jig
M: 9/8
K: Eminor
|:B2E E3 AFD|BGB cBA BGE|B2E E3 AFD|AB^c dcB AFD:|
|:E2e efd e2B|E2e e2^c dAF|E2e ef^d e2B|AB^c dcB AFD:|

